material/.icons/material/human-male-child.svg

<svg xmlns="http://www.w3.org/2000/svg" viewBox="0 0 24 24"><path d="M7 2c-1.1 0-2 .9-2 2s.9 2 2 2 2-.89 2-2-.89-2-2-2M5 7c-1.11 0-2 .89-2 2v6h2v7h5V11.6l2.53 4.4h2.44L16 14.66V22h4v-5h1v-3c0-1.11-.89-2-2-2h-2.5c-.6 0-1.13.26-1.5.68-.33.42-.68.88-1 1.32h-.31L10 7.66C9.84 7.38 9.22 7 8.5 7H5m13 1c-.83 0-1.5.67-1.5 1.5S17.17 11 18 11s1.5-.67 1.5-1.5S18.83 8 18 8z"/></svg>

<?xml version="1.0" encoding="UTF-8"?><!DOCTYPE svg PUBLIC "-//W3C//DTD SVG 1.1//EN" "http://www.w3.org/Graphics/SVG/1.1/DTD/svg11.dtd"><svg xmlns="http://www.w3.org/2000/svg" xmlns:xlink="http://www.w3.org/1999/xlink" version="1.1" id="mdi-human-male-child" width="24" height="24" viewBox="0 0 24 24"><path d="M7 2C5.9 2 5 2.9 5 4S5.9 6 7 6 9 5.11 9 4 8.11 2 7 2M5 7C3.89 7 3 7.89 3 9V15H5V22H10V11.6L12.53 16H14.97L16 14.66V22H20V17H21V14C21 12.89 20.11 12 19 12H16.5C15.9 12 15.37 12.26 15 12.68C14.67 13.1 14.32 13.56 14 14H13.69L10 7.66C9.84 7.38 9.22 7 8.5 7H5M18 8C17.17 8 16.5 8.67 16.5 9.5S17.17 11 18 11 19.5 10.33 19.5 9.5 18.83 8 18 8Z" /></svg>
